projects/sunbird-player-sdk/src/lib/assets/timer.svg

<?xml version="1.0" encoding="UTF-8"?>
<svg width="15px" height="17px" viewBox="0 0 15 17" version="1.1" xmlns="http://www.w3.org/2000/svg" xmlns:xlink="http://www.w3.org/1999/xlink">
    <title>timer</title>
    <g id="Symbols" stroke="none" stroke-width="1" fill="none" fill-rule="evenodd">
        <path d="M9.75,0.5 L5.25,0.5 L5.25,2 L9.75,2 L9.75,0.5 L9.75,0.5 Z M6.75,10.25 L8.25,10.25 L8.25,5.75 L6.75,5.75 L6.75,10.25 L6.75,10.25 Z M12.7725,5.2925 L13.8375,4.2275 C13.515,3.845 13.1625,3.485 12.78,3.17 L11.715,4.235 C10.5525,3.305 9.09,2.75 7.5,2.75 C3.7725,2.75 0.75,5.7725 0.75,9.5 C0.75,13.2275 3.765,16.25 7.5,16.25 C11.235,16.25 14.25,13.2275 14.25,9.5 C14.25,7.91 13.695,6.4475 12.7725,5.2925 L12.7725,5.2925 Z M7.5,14.75 C4.5975,14.75 2.25,12.4025 2.25,9.5 C2.25,6.5975 4.5975,4.25 7.5,4.25 C10.4025,4.25 12.75,6.5975 12.75,9.5 C12.75,12.4025 10.4025,14.75 7.5,14.75 L7.5,14.75 Z" id="timer" fill="#415CF2"></path>
    </g>
</svg>

<svg width="15" height="17" xmlns="http://www.w3.org/2000/svg"><path d="M9.75.5h-4.5V2h4.5V.5zm-3 9.75h1.5v-4.5h-1.5v4.5zm6.023-4.957l1.065-1.066A8.286 8.286 0 0012.78 3.17l-1.065 1.065A6.721 6.721 0 007.5 2.75a6.75 6.75 0 106.75 6.75c0-1.59-.555-3.053-1.477-4.207zM7.5 14.75A5.246 5.246 0 012.25 9.5 5.246 5.246 0 017.5 4.25a5.246 5.246 0 015.25 5.25 5.246 5.246 0 01-5.25 5.25z" fill="#415CF2" fill-rule="evenodd"/></svg>
